X:174
T:Lack of Certainty Reel
M:2/2
L:1/8
C:Frederick E. Wilson copyright 2005
R:Slow Reel
K:EMin
E2 F(G G)FGE|F2 G(F F)E ED|E6 B,D|
E2 F(G G)FGE|M:1/2F2 G2|M:2/2E6 B,D|
E2 F(G G)FGE|F2 G(F F)E ED|E6 GA|
B2 A(G G)A GE|F6 GF|E2 F(G G)F GE|M:1/2F2 D2|1M:2/2 E8:||2M:2/2|(E4 E)AB
d:|
e2 f(g g)fed|d6 cB|c6 BA|G2 A(B B)AGE|F/2E/2D E(E E)F GA|B8|
e2 f(g g)feB|d6 cB|c6 BA|GE GA BA G2|FED(E E4):|
